!!!COM:	L van Beethoven
!!!OTL:	String Quartet
**kern	**dynam
*I"Viola	*
*clefC3	*
*k[b-e-a-]	*
*E-:	*
*M4/4	*
=1	=1
!LO:TX:t=sotto voce	!
!LO:TX:a:B:t=Poco Adagio	!
2B-	.
(4.B-	.
8A-)	.
=2	=2
4G	.
4r	.
2r	.
=3	=3
2B-	.
(4.B-	.
8A-)	.
=4	=4
4B-	.
4r	.
4r	.
[4e	.
=5	=5
2e	.
[2f	.
=6	=6
(4f	.
4cc-	.
4b-	.
4c)	.
=7	=7
(2A-	.
4.D	.
8E-)	.
=8	=8
(4E	.
4F	.
4D	.
4E-)	.
=9	=9
4A-	.
4r	.
4r	.
!LO:TX:t=cresc.	!
[4A-	<
=10	=10
4A-	.
4F 4A-	.
8FL 8A-	.
8F	.
8G	.
8E-	.
=11	=11
4E-	p
4r	.
8r	.
8E-	.
8E-	.
8E-	.
=12	=12
4E-	.
4E-	.
8r	.
8E-	.
8E-	.
8E-	.
=13	=13
4E-	.
4E-	.
8E-L 8G	f
8r	.
4r	.
=14	=14
(2c	p
4.E	.
8F)	.
=15	=15
4F	.
4r	.
8r	.
(8F	.
8G	.
8A-	.
=16	=16
4G	.
4F)	.
8r	.
(8G	.
8A-	.
8B-	.
=17	=17
4A-	.
4G)	.
8GL 8e- 8b-	f
8r	.
4r	.
=18	=18
[1A-	p
=19	=19
1A-	.
=20	=20
1B-	.
=21	=21
(4.B-	.
8c-)	.
(4.c-	.
8c)	.
=22	=22
(4.c	.
8d-)	.
(4.f-	.
8e-)	.
=23	=23
4r	.
(4G-	.
[2G)	.
=24	=24
!LO:TX:t=cresc.	!
(4.G	<
8A-)	.
(4.A-	.
8G)	[
=25||	=25||
!LO:TX:a:B:t=Allegro	!
4E- 4G	f
4r	.
4G	.
4G	.
=26	=26
4F	.
4r	.
2r	.
=27	=27
1r	.
=28	=28
(2E-	p
2G	.
=29	=29
2A-	.
2c	.
=30	=30
2d	.
2B-)	.
=31	=31
4e-	.
4r	.
[2B-	.
=32	=32
4B-	.
(8G	.
8A-	.
4B-	.
4D-)	.
=33	=33
2C	.
4.A-	.
8G	.
=34	=34
4.F	.
8c	.
(8B-L	.
8A-)	.
8G	.
8F	.
=35	=35
4E-	p
4r	.
!LO:TX:t=pizz.	!
4E-	.
4G	.
=36	=36
2r	.
4F	.
4A-	.
=37	=37
2r	.
4A-	.
4c	.
=38	=38
4e-	.
4r	.
4B-	.
4r	.
=39	=39
!LO:TX:t=arco	!
8E-J	.
8e-L	.
8e-	.
8e-	.
8gL	.
8g	.
8g	.
8g	.
=40	=40
8fL	.
8f	.
8f	.
8f	.
8cL 8f	.
8c 8f	.
8c 8f	.
8c 8f	.
=41	=41
8cL 8e-	.
8c 8e-	.
8c 8e-	.
8c 8e-	.
8cL 8f	.
8c 8f	.
8c 8f	.
8c 8f	.
=42	=42
8B-L 8e-	.
8B- 8e-	.
8B- 8e-	.
8B- 8e-	.
8B-L 8e-	.
8B- 8e-	.
8B- 8e-	.
8B- 8e-	.
=43	=43
4A 4f	f
4r	.
[2g-	p
=44	=44
2g-	.
2g	.
=45	=45
4F 4A	f
4r	.
[2g-	p
=46	=46
!LO:TX:t=cresc.	!
(1g-	<
=47	=47
1g)	.
=48	=48
[2f [2a	sf
8f 8a	.
8f 8a	[
8f	p
8f	.
=49	=49
8e-L	.
8c	.
8c	.
8F	.
8FL	.
8F	.
8F	.
8F	.
=50	=50
8B-L	.
!LO:TX:t=cresc.	!
(4f	<
8f#	.
8gL)	.
8f	.
8c	.
8d	.
=51	=51
8e-L	.
8G	.
8A	.
8F	.
8B-L	.
8F	.
8c	.
8F	.
=52	=52
[2B-	p
(16B-LL	.
16A	.
16G	.
16F	.
16GLL	.
16A	.
16B-	.
16c)	.
=53	=53
[2d	.
(16dLL	.
16c	.
16B-	.
16A	.
16B-LL	.
16c	.
16d	.
16e-)	.
=54	=54
(16fLL	.
16g	.
16a	.
16b-	.
16aLL	.
16g	.
16f	.
16e-)	.
(16dLL	.
16e-	.
16f	.
16g	.
16fLL	.
16e-	.
16d	.
16c)	.
=55	=55
8B-L	.
8r	.
4r	.
(16FLL	.
16G	.
16A	.
16B-	.
16ALL	.
16G	.
16F	.
16E-)	.
=56	=56
8DL	.
8r	.
4r	.
2r	.
=57	=57
4r	.
!LO:TX:t=cresc.	!
2G	<
4G-	.
=58	=58
4F	p
4r	.
2r	.
=59	=59
(16BLL	.
16c	.
16d	.
16e-	.
16dLL	.
16c	.
16B	.
16A	.
8GL)	.
8r	.
4r	.
=60	=60
1r	.
=61	=61
(16ALL	.
16B-	.
16c	.
16d	.
16cLL	.
16B-	.
16A	.
16G	.
8FL)	.
8r	.
4r	.
=62	=62
4r	.
!LO:TX:t=cresc.	!
(16B-LL	<
16c	.
16B-	.
16c	.
16dLL	.
16e-	.
16d	.
16e-	.
8fL)	.
8f	.
=63	=63
2f#	.
2f	.
=64	=64
4e-	.
(2c	.
4d-)	.
=65	=65
8dL	.
(8d	.
8e-	.
8f)	.
(8e-L	.
8c)	.
8A	.
8E-	.
=66	=66
4D	p
!LO:TX:t=cresc.	!
2D 2d	<
4D 4d	.
=67	=67
[1D [1d	.
=68	=68
8DL 8d	.
(8c	.
8B	.
8c	.
8dL	.
8e-	.
8G	.
8c)	.
=69	=69
(8cL	.
8B-	.
8F	.
8G	.
8FL	.
8G)	.
8F	.
8F	[
=70	=70
[2F	f
8FL	.
8f	sf
8F	.
8F	.
=71	=71
8FL	.
8f	sf
8F	.
8F	.
8FL	.
8f	sf
8F	.
8F	.
=72	=72
(8FL	.
8B-)	.
4B-	.
8r	.
!LO:TX:t=dim.	!
8F	.
8F	.
8F	.
=73	=73
4F	p
4F	.
8r	.
8F	.
8F	.
8F	.
=74	=74
4F	.
4r	.
4F	.
4r	.
=75	=75
(4F	.
4F	.
4F	.
4F)	.
=76	=76
1F	pp
=77	=77
1F	.
=78:|!	=78:|!
4G 4g	f
4r	.
4d	.
4B	.
=79	=79
4A	.
4r	.
8r	.
(8D	pp
8E	.
8F#	.
=80	=80
8GL	.
8F#	.
8G	.
8B	.
8AL	.
8G	.
8A	.
8c	.
=81	=81
8BL	.
8A	.
8B	.
8d	.
8GL	.
8d	.
8B	.
8d)	.
=82	=82
4G	.
4r	.
2r	.
=83	=83
1r	.
=84	=84
(8GL	.
8F#	.
8G	.
8B-)	.
(8GL	.
8F#	.
8G	.
8B-)	.
=85	=85
(8GL	.
8F#	.
8G	.
8B-)	.
(8GL	.
8F#	.
8G	.
8B-)	.
=86	=86
4G	.
(8G	.
8A-)	.
4B-	.
4r	.
=87	=87
4r	.
(8g	.
8a-)	.
4b-	.
4r	.
=88	=88
!LO:TX:t=cresc.	!
1D- 1d-	<
=89	=89
2C 2c	.
2C 2c	.
=90	=90
2C 2c	.
2C 2c	.
=91	=91
2C 2c	.
2C 2c	.
=92	=92
2C 2c	.
2E	ff
=93	=93
16ELL	.
16E	.
16E	.
16E	.
16FLL	sf
16F	.
16F	.
16F	.
16ELL	.
16E	.
16E	.
16E	.
16cLL	sf
16c	.
16c	.
16c	.
=94	=94
16cLL	.
16c	.
16c	.
16c	.
16dLL	sf
16d	.
16d	.
16d	.
16dLL	.
16d	.
16d	.
16d	.
16cLL	sf
16c	.
16c	.
16c	.
=95	=95
16cLL	.
16c	.
16c	.
16c	.
16cLL	sf
16c	.
16c	.
16c	.
16BLL	.
16d	.
16d	.
16d	.
16dLL	sf
16d	.
16d	.
16d	.
=96	=96
!LO:TX:t=sempre	!
16CLL	.
16C	.
16E	.
16E	.
16CLL	f
16C	.
16E	.
16E	.
8DL	.
8F	.
8D	.
8F	.
=97	=97
8EL	.
8G	.
8E	.
8G	.
8FL	.
8d	.
8F	.
8d	.
=98	=98
8dL	.
8G	.
8d	.
8G	.
8dL	.
8G	.
8d	.
8G	.
=99	=99
8dL	.
8B	.
8d	.
8G	.
8AL	.
8G	.
8A	.
8B	.
=100	=100
8CL	.
8E	.
8C	.
8E	.
8DL	.
8F	.
8D	.
8F	.
=101	=101
8EL	.
8G	.
8C	.
8c	.
8FL	.
8d	.
8F	.
8d	.
=102	=102
8dL	.
8B	.
8d	.
8B	.
8BL	.
8G	.
8B	.
8G	.
=103	=103
8dL	.
8B	.
8d	.
8B	.
8BL	.
8G	.
8B	.
8G	.
=104	=104
8cL	.
8G	.
8d	.
8G	.
8dL	.
8G	.
8d	.
8G	.
=105	=105
8cL	.
8G	.
8B	.
8G	.
8BL	.
8G	.
8B	.
8G	.
=106	=106
8cL	.
8G	.
8d	.
8G	.
8dL	.
8G	.
8d	.
8G	.
=107	=107
8cL	.
8C	.
8E	.
8C	.
8FL	.
8C	.
8F	.
8C	.
=108	=108
8GL	.
8C	.
8G	.
8C	.
8DL	.
8F	.
8D	.
8F	.
=109	=109
8EL	.
8C	.
8E	.
8C	.
2r	.
=110	=110
8EL	.
8C	.
8E	.
8C	.
2r	.
=111	=111
8GL	.
8E	.
8G	.
8E	.
2r	.
=112	=112
!LO:TX:t=dim.	!
8B-L	.
8G	.
8B-	.
8G	.
2r	.
=113	=113
8A-L	.
8F	.
8A-	.
8F	.
2r	.
=114	=114
8A-L	.
8F	.
8A-	.
8F	.
2r	.
=115	=115
8A-L	p
8F	.
8A-	.
8F	.
2r	.
=116	=116
8G-L	.
8E-	.
8G-	.
8E-	.
2r	.
=117	=117
8A-L	.
8F	.
8A-	.
8F	.
2r	.
=118	=118
8G-L	.
8E-	.
8G-	.
8E-	.
2r	.
=119	=119
(16ALL	p
16B-	.
16A	.
16B-	.
16ALL	.
16B-	.
16A)	.
16B-	.
2r	.
=120	=120
4A	.
4B-	.
2r	.
=121	=121
4A	.
4B-	.
2r	.
=122	=122
4F	.
4G-	.
2r	.
=123	=123
4E	pp
4F	.
2r	.
=124	=124
4E	.
4F	.
2r	.
=125	=125
1r	.
=126	=126
2r	.
!LO:TX:t=pizz.	!
4D	.
4F	.
=127	=127
4B-	.
4d	.
2r	.
=128	=128
1r	.
=129	=129
2r	.
(6D	.
6F	.
6B-)	.
=130	=130
(6F	.
6B-	.
6d)	.
2r	.
=131	=131
1r	.
=132	=132
2r	.
8DL	.
8F	.
8B-	.
8d	.
=133	=133
8FL	.
8B-	.
8d	.
8f	.
2r	.
=134	=134
1r	.
=135	=135
!LO:TX:t=arco	!
12DL	.
12F	.
12B-	.
12dL	.
12f	.
12b-	.
2r	.
=136	=136
2r	.
!LO:TX:t=cresc.	!
12DL	<
12F	.
12A-	.
12B-L	.
12d	.
12f	.
=137	=137
2r	.
12a-L	.
12f	.
12d	.
12B-L	.
12A-	.
12F	.
=138	=138
12DL	.
12d 12f	.
12d 12f	.
12dL 12f	.
12d 12f	.
12d 12f	.
12dL 12f	.
12F 12A-	.
12F 12A-	.
12FL 12A-	.
12F 12A-	.
12F 12A-	.
=139	=139
4E- 4G	f
4r	.
4G	.
4e-	.
=140	=140
4B-	.
4r	.
2r	.
=141	=141
1r	.
=142	=142
[1E-	p
=143	=143
[1E-	.
=144	=144
[1E-	.
=145	=145
2E-	.
!LO:TX:t=cresc.	!
(8GL	<
8F#	.
8G	.
8B-)	.
=146	=146
(2E-	.
2G	.
=147	=147
2A-	.
2F)	.
=148	=148
[1B-	.
=149	=149
2B-	.
(2d	.
=150	=150
2e-	.
2f)	.
=151	=151
4g	p
(4E-	.
2F)	.
=152	=152
!LO:TX:t=cresc.	!
(2G	.
2A-)	.
=153	=153
4B- 4e	p
4r	.
!LO:TX:t=pizz.	!
4G	.
4B-	.
=154	=154
2r	.
4F	.
4A-	.
=155	=155
2r	.
4E-	.
4A-	.
=156	=156
4B-	.
4r	.
4B-	.
4r	.
=157	=157
!LO:TX:t=arco	!
8dL 8f	.
8d 8f	.
8d 8f	.
8d 8f	.
8dL 8f	.
8d 8f	.
8d 8f	.
8d 8f	.
=158	=158
8cL 8f#	.
8c 8f#	.
8c 8f#	.
8c 8f#	.
8dL 8f	.
8d 8f	.
8d 8f	.
8d 8f	.
=159	=159
8e-L	.
8g	.
8g	.
8g	.
8gL	.
8g	.
8g	.
8g	.
=160	=160
8gL 8b-	.
8g 8b-	.
8g 8b-	.
8g 8b-	.
8f#L 8a	.
8f# 8a	.
8f# 8a	.
8f# 8a	.
=161	=161
4g	.
4r	.
!LO:TX:t=pizz.	!
4G	.
4B-	.
=162	=162
2r	.
4G	.
4B	.
=163	=163
2r	.
4F	.
4A-	.
=164	=164
4G	.
4r	.
4G	.
4r	.
=165	=165
!LO:TX:t=arco	!
8e-L	.
8e-	.
8e-	.
8e-	.
8d-L 8f	.
8d- 8f	.
8d- 8f	.
8d- 8f	.
=166	=166
8d-L 8g	.
8d- 8g	.
8d- 8g	.
8d- 8g	.
8cL 8g	.
8c 8g	.
8c 8g	.
8c 8g	.
=167	=167
8cL 8f	.
8c 8f	.
8c 8f	.
8c 8f	.
8B-L 8f	.
8B- 8f	.
8B- 8f	.
8B- 8f	.
=168	=168
8B-L 8e-	.
8B- 8e-	.
8B- 8e-	.
8B- 8e-	.
8AL 8e-	.
8A 8e-	.
8c 8e-	.
8c 8e-	.
=169	=169
4B- 4d	f
4r	.
2r	.
=170	=170
(2dd	p
2ee-)	.
=171	=171
4d 4dd	f
4B- 4d	.
[2c-	p
=172	=172
!LO:TX:t=cresc.	!
(1c-	<
=173	=173
1c)	.
=174	=174
[2d	sf
8dL	[
8d	.
8d	p
8e	.
=175	=175
8fL	.
8F	.
8F	.
8F	.
8E-L	.
8G	.
8D	.
8A-	.
=176	=176
8GL	.
!LO:TX:t=cresc.	!
(4B-	<
8B	.
8cL	.
8B-)	.
8F	.
8G	.
=177	=177
8A-L	.
8E-	.
8F	.
8F	.
8GL	.
8E-	.
8D	.
8D	.
=178	=178
8E-L	p
8r	.
4r	.
2r	.
=179	=179
[2e-	.
(16e-LL	.
16d	.
16c	.
16B-	.
16cLL	.
16d	.
16e-)	.
16f	.
=180	=180
(16gLL	.
16a-	.
16b-	.
16cc	.
16b-LL	.
16a-	.
16g	.
16f	.
8e-L)	.
8r	.
4r	.
=181	=181
(16GLL	.
16A-	.
16B-	.
16c	.
16B-LL	.
16A-	.
16G	.
16F)	.
8E-L	.
8r	.
4r	.
=182	=182
2r	.
4r	.
8r	.
!LO:TX:t=cresc.	!
(8G	<
=183	=183
4F	.
2f	.
4F)	.
=184	=184
4G	p
4r	.
2r	.
=185	=185
(16GLL	.
16A-	.
16B-	.
16c	.
16B-LL	.
16A-	.
16G	.
16F)	.
8EL	.
8r	.
4r	.
=186	=186
2r	.
(16FLL	.
16G	.
16A-	.
16B-	.
16A-LL	.
16G	.
16F	.
16E-)	.
=187	=187
8DL	.
8r	.
4r	.
(16FLL	.
16G	.
16A-	.
16B-	.
16cLL	.
16d	.
16e-	.
16f	.
=188	=188
!LO:TX:t=cresc.	!
4g)	<
(16e-LL	.
16f	.
16e-	.
16f	.
16gLL	.
16a-	.
16g	.
16a-	.
8b-L)	.
8b-	.
=189	=189
2b	.
2b-	.
=190	=190
4a-	.
(2F	.
4F#)	.
=191	=191
2G	.
(8A-L	.
8G)	.
(8A-	.
8F)	.
=192	=192
4G	p
!LO:TX:t=cresc.	!
(16E-LL	<
16F	.
16E-	[
16F	.
16GLL	.
16A-	.
16G	.
16A-	.
8B-L)	.
8B-	.
=193	=193
4B	.
4b	.
4b-	.
4B-	.
=194	=194
4A-	.
4a-	.
4r	.
4a-	.
=195	=195
4r	.
4g	.
4r	.
4d	.
=196	=196
[2E-	f
8E-L	.
8F	sf
8E-	.
8E-	.
=197	=197
8E-L	.
8F	sf
8E-	.
8E-	.
8E-L	.
8F	sf
8D	.
8D	.
=198	=198
(8DL	.
8E-)	.
4E-	.
8r	.
!LO:TX:t=dim.	!
8F	.
8D	.
8D	.
=199	=199
(8DL	.
8E-)	.
4E-	.
8r	.
8F	.
8D	.
8E-	.
=200	=200
4E-	.
4r	.
4E-	.
4r	.
=201	=201
(4E-	.
4E-	.
4E-	.
4E-)	.
=202	=202
1E-	pp
=203	=203
1E-	.
=204	=204
4E-	ppp
4r	.
8r	.
8d	.
8e-	.
8e-	.
=205	=205
4e-	.
4r	.
8r	.
8B	.
8c	.
8c	.
=206	=206
4c	.
4r	.
8r	.
8A	.
8c	.
8c	.
=207	=207
4D 4c	.
4r	.
4D 4c	.
4r	.
=208	=208
(4D 4c	.
4D 4c	.
4D 4c	.
4D) 4c	.
=209	=209
1D 1c	.
=210	=210
1A	.
=211	=211
1A-	.
=212	=212
(2A-	.
2G)	.
=213	=213
1F	.
=214	=214
(2F	.
2E-)	.
=215	=215
4D	.
4r	.
!LO:TX:t=poco cresc.	!
(4f	<
8d	.
8e-	.
=216	=216
4f	.
4B)	.
(4f	.
8d	.
8e-	.
=217	=217
4f	.
4B-)	.
(4f	.
8d	.
8e-	.
=218	=218
!LO:TX:t=più cresc.	!
4e-	.
4G)	.
(4e-	.
8G	.
8B-	.
=219	=219
4A-	.
4F)	.
(4A-	.
8F	.
8A-	.
=220	=220
4G	.
4E-)	.
(4G	.
8e-	.
8g-)	.
=221	=221
4g-	f
4r	.
2r	.
=222	=222
!LO:TX:t=pizz.	!
4G-	.
4A	.
4c	.
4e-	.
=223	=223
4g-	.
4r	.
2r	.
=224	=224
2r	.
4r	.
!LO:TX:t=arco	!
4G-	.
=225	=225
4F	f
4r	.
2r	.
=226	=226
!LO:TX:t=pizz.	!
4F	.
4A-	.
4c-	.
4d	.
=227	=227
1r	.
=228	=228
2r	.
4r	.
!LO:TX:t=arco	!
4A-	.
=229	=229
4G 4B-	f
4r	.
2r	.
=230	=230
!LO:TX:t=pizz.	!
4D-	.
4E	.
4G	.
4B-	.
=231	=231
1r	.
=232	=232
4e	.
4g	.
4b-	.
4B-	.
=233	=233
4F	.
4r	.
!LO:TX:t=arco	!
[2c	.
=234	=234
(4c	.
8B-	.
8c	.
4d	.
4G)	.
=235	=235
2d	.
[2d	.
=236	=236
(4d	.
8c	.
8d	.
4e-	.
4A-)	.
=237	=237
2e-	.
[2e-	.
=238	=238
(4e-	.
8d	.
8e-	.
4f	.
4B-)	.
=239	=239
2f	.
[2f	.
=240	=240
(4f	f
2e-	.
4f	.
=241	=241
4d	.
4f	.
4A-	.
4d)	.
=242	=242
!LO:TX:t=più f	!
(4B-	.
4b-	.
4e-	.
4f	.
=243	=243
4d	.
4f	.
4A-	.
4d)	.
=244	=244
(4B-	ff
4b-	.
4e-	.
4a-	.
=245	=245
4g	.
4G	.
4F	.
4B-)	.
=246	=246
4E-	.
4r	.
8r	.
8B-	sf
8B-	.
8B-	.
=247	=247
8B-L	.
8B-	sf
8B-	.
8B-	.
8B-L	.
8B-	sf
8B-	.
8B-	.
=248	=248
4B-	.
4B-	.
8r	.
!LO:TX:t=dim.	!
8B-	.
8B-	.
8B-	.
=249	=249
4B-	.
4B-	.
8r	.
8F	.
8D	.
8D	.
=250	=250
(8DL	.
8E-)	.
4E-	.
8r	.
8A-	p
8F	.
8F	.
=251	=251
[1E- [1G	.
=252	=252
[1E- [1G	.
=253	=253
!LO:TX:t=cresc.	!
[1E- [1G	<
=254	=254
2.E- 2.G	.
4B-	f
=255	=255
[1E- [1G	fp
=256	=256
[1E- [1G	.
=257	=257
!LO:TX:t=cresc.	!
[1E- [1G	<
=258	=258
[2E- [2G	.
8E-L 8G	f
8B-	.
8B-	.
8B-	.
=259	=259
4B-	.
4r	.
8GL	p
8G	.
8B-	.
8B-	.
=260	=260
4E-	.
4r	.
4G	f
4B-	.
=261	=261
4E-	.
4r	.
4F 4A-	.
4r	.
=262	=262
4E- 4G	.
4r	.
2r	.
=263	=263
*k[b-e-a-d-]	*
*A-:	*
*M3/8	*
!LO:TX:a:B:t=Adagio ma non troppo	!
8r	.
(8E- 8A-	.
8E-) 8A-	.
=264	=264
(8.E-L	.
16E	.
16F	.
16E-)	.
=265	=265
(8DL	.
8D-	.
8C)	.
=266	=266
(16A-LL	.
16E-)	.
(8E-L	.
8e-)	.
=267	=267
(8e-L	.
4G)	.
=268	=268
(8A-L	.
8E-	.
8e-	.
=269	=269
(8eL	<
8E)	.
8F	[
=270	=270
8GL	>
16A-	.
16c	.
16B-	.
16A-)	.
=271	=271
(8A-L	]
16G)	.
16r	.
8r	.
=272	=272
(8d-L	.
8c	.
8B-)	.
=273	=273
[4.A-	.
=274	=274
(8A-L	.
8a-	.
8A- 8g-	.
=275	=275
4A-) 4f	<
(16A-	sf
16f)	.
=276	=276
4f	.
(16F	sf
16f)	.
=277	=277
8.fL	.
16d-	.
(16d-	.
16c)	.
=278	=278
8B-	.
!LO:TX:t=cresc.	!
(8.d-	<
16e-)	.
=279	=279
(16e-LL	.
16A-)	[
(8A-L	f
8e-)	[
=280	=280
(8cL	p
8A-	.
[8B-	.
=281	=281
8B-L)	.
8E-	.
16F	.
16G)	.
=282	=282
(16A-LL	.
16C)	.
[4D-	.
=283	=283
8D-L	.
8E-	.
16F	.
16G	.
=284	=284
!LO:TX:t=cresc.	!
(4A-	<
32G	.
32F	.
32E-)	[
32D-	.
=285	=285
4.D-	sf
=286	=286
8CL	p
8r	.
[8c-	.
=287	=287
8c-L	.
[4c-	.
=288	=288
8c-L	.
[4c-	.
=289	=289
8c-L	.
[4c-	.
=290	=290
(8c-L	.
8B-)	.
(8B-	.
=291	=291
!LO:TX:t=cresc.	!
8d-L	.
4G-)	.
=292	=292
8G-J	.
(16G-LL	f
16G-)	.
(16G-LL	.
16G-)	.
=293	=293
4F-	.
[8D	.
=294	=294
8DL	.
[4D	sf
=295	=295
8DL	.
!LO:TX:t=dim.	!
[4D	.
=296	=296
8DL	p
(8E-	.
8F-)	.
=297	=297
8E-L	.
4e-	.
=298	=298
4f-	.
8f-	.
=299	=299
8e-J	.
(16E-LL	.
[16G-)	.
8G-J	.
=300	=300
8GL	.
[4G-	.
=301	=301
8G-L	.
[4G-	.
=302	=302
8G-L	.
[4G-	.
=303	=303
8G-L	.
4E-	.
=304	=304
8F-L	.
[4F-	.
=305	=305
8F-L	.
[4A-	.
=306	=306
8A-L	.
[4B-	.
=307	=307
8B-L	.
!LO:TX:t=cresc.	!
[4B-	<
=308	=308
8B-L	.
8E- 8B-	.
[8E- [8B-	.
=309	=309
8E-L 8B-	.
[4E- [4A-	.
=310	=310
8E-L 8A-	.
8A-	.
8A-	.
=311	=311
8B-L	p
8r	.
8r	.
=312	=312
8r	.
8r	.
(16d-	.
16B-)	.
=313	=313
(8A-L	.
8G)	.
8r	.
=314	=314
8r	.
8r	.
(16d-	.
16B-)	.
=315	=315
(8A-L	.
8G)	.
8GJ	sf
=316	=316
4E- 4A-	.
8A	sf
=317	=317
4F 4B-	.
8A	sf
=318	=318
!LO:TX:t=dim.	!
4F 4B-	.
(8B-	.
=319	=319
4G)	.
8G	.
=320	=320
8r	.
!LO:TX:t=espress.	!
8F	.
8r	.
=321	=321
8r	.
8F 8A-	.
8r	.
=322	=322
8r	.
8F 8A-	.
8r	.
=323	=323
8r	.
8A-	.
8r	.
=324	=324
8r	.
16b-	pp
16r	.
8r	.
=325	=325
4.r	.
=326	=326
8r	.
(24A-	p
24c	.
24e	.
24fLL	.
24a-	.
24e-)	.
=327	=327
(16dLL	.
16D)	.
(24D-LL	.
24E	.
24G	.
24A-LL	.
24c	.
24e-)	.
=328	=328
(24A-LL	.
24E	.
24E-)	.
(24E-LL	.
24A-	.
24c)	.
(16A-LL	.
16E-)	.
=329	=329
8GJ	.
(24GLL	.
24B-	.
24d)	.
(16e-LL	.
16G)	.
=330	=330
!LO:TX:t=cresc.	!
8A-J	.
(24CLL	.
24E-	.
24G)	.
8A-L	.
=331	=331
(8B-J	.
24D-LL	.
24E	.
24G	.
8A-)	.
=332	=332
(24GLL	>
24B-)	.
24B-	.
(24A-LL	.
24B-	.
24c	.
24B-LL	.
24F	.
24A-)	]
=333	=333
(24A-LL	.
24B-	.
24A-	.
24GLL	.
24B-	.
24d	.
24e-LL	.
24G	.
24F)	.
=334	=334
8E-J	p
(24E-LL	.
24A-	.
24c)	.
8d-L	.
=335	=335
[4c	.
24c	.
(24c	.
24B-)	.
=336	=336
8A-L	.
(24D-	.
24F	.
24A-	.
8G-L)	.
=337	=337
(8FL	.
8A-)	.
(24fLL	.
24e-	sf
24f)	.
=338	=338
(16fLL	.
[8.A)	.
24ALL	.
24f	sf
24f	.
=339	=339
(16fLL	.
[8.F)	.
(24FLL	.
24d-	.
24A)	.
=340	=340
!LO:TX:t=cresc.	!
[4B-	<
24B-	.
(24B-	.
24e-)	.
=341	=341
(24e-LL	.
24A-	.
24f)	[
(24e-LL	f
24c	.
24A-)	.
24GLL	.
24G	.
24G	.
=342	=342
16A-LL	p
16r	.
(24F	.
24G	.
24A	.
8B-L)	.
=343	=343
24D-LL	.
24D-	.
24D-	.
24D-LL	.
24D-	.
24D-	.
24D-LL	.
24D-	.
24D-	.
=344	=344
24CLL	.
(24D-	.
24E-	.
24FLL	.
24G	.
24A	.
8B-L)	.
=345	=345
24D-LL	.
24D-	.
24D-	.
24D-LL	.
24D-	.
24D-	.
24D-LL	.
24D-	.
24D-	.
=346	=346
!LO:TX:t=cresc.	!
24CLL	<
24A-	.
24A-	.
24A-LL	.
24A-	.
24A-	.
24GLL	.
24B-	.
24B-	.
=347	=347
(8B-J	sf
24GLL	.
24B-	.
[24d-)	.
8d-L	.
=348	=348
8cL	p
(8G-	sf
16FLL	.
16E-)	.
=349	=349
(32FLLL	.
32A-	.
32B-	.
32A-	.
32FLLL	.
32A-	.
32F	.
32A-	.
32FLLL	.
32A-	.
32F	.
32A-)	.
=350	=350
(32E-LLL	.
32A-	.
32B-	.
32A-	.
32E-LLL	.
32A-	.
32E-	.
32A-	.
32E-LLL	.
32A-	.
32F	.
32A-)	.
=351	=351
(32G-LLL	.
32A-	.
32B-	.
32A-	.
32G-LLL	.
32A-	.
32G-	.
32A-	.
32FLLL	.
32A-	.
32E-	.
32A-)	.
=352	=352
(32FLLL	.
32A-	.
32B-	.
32A-	.
32FLLL	.
32A-	.
32F	.
32A-	.
32FLLL	.
32A-	.
32E-	.
32A)	.
=353	=353
!LO:TX:t=cresc.	!
(32D-LLL	.
32F	.
32B-	.
32F	.
32B-LLL	.
32F	.
32B-	.
32F	.
32B-LLL	.
32F	.
32A	.
32F)	.
=354	=354
(32FLLL	.
32A	.
32B-	.
32A)	.
(32FLLL	.
32B-	.
32c	.
32B-)	.
(32FLLL	.
32A-	.
32E-	.
32A-)	.
=355	=355
(32E-LLL	.
32A-	.
32F	.
32A-)	.
(32CLLL	.
32E-	.
32A-	.
32E-	.
32A-LLL	.
32E-	.
32A-	.
32E-)	.
=356	=356
(32E-LLL	.
32A-	.
32G-	.
32A-)	.
(32E-LLL	.
32A-	.
32D-	.
32A-	.
32CLLL	.
32A-	.
32C	.
32E-)	.
=357	=357
4.D-	.
=358	=358
4C	.
(16C	.
16D-)	.
=359	=359
4E-	.
(16D-	.
16C)	.
=360	=360
(8CL	.
8D-)	.
(16D-LL	.
16C)	.
=361	=361
!LO:TX:t=cresc.	!
8.D-L	.
16D-	.
(16D-	.
16F)	.
=362	=362
(8FL	.
8B-)	.
(16BLL	.
16c)	.
=363	=363
(16CLL	.
16D-)	.
8E-L	.
8E-	.
=364	=364
8A-L	.
(8E- 8A-	pp
8E-) 8A-	.
=365	=365
(4E- 4A-	.
*^	*
16B-	8E-	.
16A-)	.	.
=366	=366	=366
(8A-L	4.E-	.
8G	.	.
8A-)	.	.
*v	*v	*
=367	=367
4A-	.
(8A-	.
=368	=368
4G)	.
!LO:TX:t=espress.	!
(8G	.
=369	=369
4A-)	.
(8c-	.
=370	=370
8.B-L)	.
16r	.
(8A-	.
=371	=371
8.cL)	.
16r	.
(8A-	f
=372	=372
8.cL)	.
16r	.
(16D-	ff
16C) 16c	.
=373	=373
(8CL 8c	.
8B)	.
(24d-LL	p
24c	.
24d-)	.
=374	=374
(8cL	.
8B)	.
(24d-LL	.
24c	.
24d-	.
=375	=375
24cLL	.
24B	.
24c	.
24B-LL	.
24A	.
24B-	.
24A-LL	.
24G	.
24A-)	.
=376	=376
(24GLL	<
24F#	.
24G	.
24FLL	.
24E	>
24F	.
24E-LL	.
24F	.
24G)	.
=377	=377
16A-LL	]
16r	.
!LO:TX:t=pizz.	!
16A-	.
16c	.
16f	.
16a-	.
=378	=378
16DLL	.
16d	.
16d-	.
16D-	.
16C	.
16c	.
=379	=379
16a-LL	.
16B-	.
16a-	.
16A-	.
16c	.
16C	.
=380	=380
16e-LL	.
16E-	.
16G	.
16B-	.
16e-	.
16g	.
=381	=381
16CLL	.
16E-	.
16A-	.
16c	.
16e-	.
16a-	.
=382	=382
16GLL	.
16B-	.
16d-	.
16e	.
16g	.
16a-	.
=383	=383
16ELL	.
16g	.
16c	.
16F	.
16B-	.
16B-	.
=384	=384
16dLL	.
16b-	.
16b-	.
16G	.
16G	.
16F	.
=385	=385
16E-LL	.
16b-	.
16cc	.
16A-	.
16dd-	.
16G	.
=386	=386
16A-LL	.
16cc	.
16A-	.
16c	.
16g-	.
16f	.
=387	=387
16e-LL	.
16E-	.
16F	.
16a-	.
16E-	.
16g-	.
=388	=388
16D-LL	.
16f	.
16a-	.
16dd-	.
16e-LL	.
16A-	.
=389	=389
16ALL	.
16f	.
16cc	.
16ff	.
16d-LL	.
16c	.
=390	=390
16B-LL	.
16d-	.
16f	.
16b-	.
16D-LL	.
16E-	.
=391	=391
16D-LL	.
16F	.
16B-	.
16d-	.
16D-LL 16G	.
16e-	.
=392	=392
16e-LL	.
16F	.
16E-LL 16A-	.
16c	.
16E- 16d-	.
16r	.
=393	=393
!LO:TX:t=arco	!
(32CLLL	p
32E-)	.
(32E-	.
32A-)	.
(32D-LLL	.
32F)	.
(32F	.
32A-)	.
(32D-LLL	.
32F)	.
(32F	.
32B-)	.
=394	=394
(32D-LLL	.
32E-)	.
(32E-	.
32B-)	.
(32E-LLL	.
32G)	.
(32G	.
32B-)	.
(32GLLL	.
32B-)	.
(32B-	.
32d-)	.
=395	=395
(8A-L	.
8.F	.
16B-)	.
=396	=396
(8A-L	.
8G	.
16F	.
16E-)	.
=397	=397
!LO:TX:t=cresc.	!
(8E-L	.
8F	.
8G)	.
=398	=398
4.G 4.B-	sf
=399	=399
8GL 8B-	p
8r	.
(32G	.
32B-)	.
32d-	.
32G	.
=400	=400
8d-L	.
8r	.
8r	.
=401	=401
8c-L	.
[4c-	.
=402	=402
8c-L	.
[4c-	.
=403	=403
8c-L	.
!LO:TX:t=cresc.	!
[4c-	.
=404	=404
!LO:TX:t=dim. p	!
(8c-L	.
8B-)	.
8r	.
=405	=405
4.r	.
=406	=406
8r	.
(8E-	.
8B-)	.
=407	=407
!LO:TX:t=cresc.	!
(8E-L	.
[4F)	.
=408	=408
16FLL	.
(16F	.
16G)	.
(16G	.
16A-	.
16B-	.
=409	=409
8A-J)	p
(16D-LL	.
16F)	.
8r	.
=410	=410
8r	.
(16E-	.
16G)	.
!LO:TX:t=cresc.	!
8r	.
=411	=411
8r	.
(16F	.
16A-)	.
(16d-LL	.
16f)	.
=412	=412
8r	.
(16c	p
16e-)	.
8r	p
=413	=413
8r	.
(16b-	.
16ee-)	.
8r	.
=414	=414
8r	.
4ff-	>
=415	=415
8r	]
[4ff-	>
=416	=416
(4ff-	]
8ee-)	.
=417	=417
4ee-	.
8r	.
=418	=418
4.b-	.
=419	=419
4a-	.
8r	.
=420	=420
(4F-	.
8E-)	.
=421	=421
4.E-	<
=422	=422
8E-L	[
8E-	.
8r	.
=423	=423
8E-L	.
8E-	.
8r	.
=424	=424
!LO:TX:t=cresc.	!
4.D	.
=425	=425
4.D-	sf
=426	=426
8CL	p
8r	.
!LO:TX:t=espressivo morendo	!
8D-	.
=427	=427
8CL	.
8r	.
8D-	.
=428	=428
8r	.
8C	.
8r	.
=429	=429
8r	.
8E-	.
8r	.
=430	=430
8r	.
8E-	.
8E-	.
=431	=431
8E-L	.
8r	.
8r	.
=432!|:	=432!|:
*k[b-e-a-]	*
*c:	*
*M3/4	*
!LO:TX:a:B:t=Presto	!
4r	.
8r	.
=433	=433
8cL	.
8d	.
8e-	.
8f	.
8e-	.
8d	.
=434	=434
8cL	.
8d	.
8e-	.
8f	.
8e-	.
8d	.
=435	=435
8cL	.
8d	.
8e-	.
8f	.
8f#	.
8f#	.
=436	=436
8gL	.
8a	.
8b	.
8b	p
8b	.
8b	.
=437	=437
8ccL	.
8b-	.
8a	.
8b	.
8g	.
8g	.
=438	=438
8gL	.
8d	.
8e-	.
8B	.
8c	.
8c	.
=439	=439
4B	.
4r	.
4r	.
=440	=440
4.r	.
=:|!|:	=:|!|:
8A-L	f
8A-	.
8A-	.
=441	=441
4.G	.
8A-	.
8A-	.
8A-	.
=442	=442
4.G	.
8A-	.
8A-	.
8A-	.
=443	=443
4.G	.
8A-	.
8A-	.
8A-	.
=444	=444
4.G	.
8D-	.
8D-	.
8D-	.
=445	=445
4.C	.
8D-	.
8D-	.
8D-	.
=446	=446
4.C	.
8D-	.
8D-	.
8D-	.
=447	=447
4.C	.
8D-	.
8D-	.
8D-	.
=448	=448
4.C	.
8E-	.
8E-	.
8E-	.
=449	=449
8FL 8A-	.
8F 8A-	.
8F 8A-	.
8F 8A-	.
8F 8A-	.
8F 8A-	.
=450	=450
8FL 8A-	.
8F 8A-	.
8F 8A-	.
8F 8A-	.
8F 8A-	.
8F 8A-	.
=451	=451
8B-L	ff
8G-	.
8B-	.
8e-	.
8g-	.
8b-	.
=452	=452
4E-	.
4r	.
8E-L	.
8E-	.
=453	=453
8E-L	.
8E-	.
8E-	.
8E-	.
8E-	.
8E-	.
=454	=454
8G-L	.
8G-	.
8G-	.
8G-	.
8G-	.
8G-	.
=455	=455
4.A-	.
8f	f
8f	.
8f	.
=456	=456
4.f	.
8F	.
8F	.
8F	.
=457	=457
8FL	.
8F 8A-	.
8F 8A-	.
8F 8A-	.
8F 8A-	.
8F 8A-	.
=458	=458
8FL 8A-	.
8F 8A-	.
8F 8A-	.
8F 8A-	.
8F 8A-	.
8F 8A-	.
=459	=459
8FL 8G	.
8G	.
8B-	.
8d-	.
8g	.
8b-	.
=460	=460
4B-	.
4r	.
8GL	.
8G	.
=461	=461
8GL	.
8G	.
8G	.
8G	.
8G	.
8G	.
=462	=462
8GL	.
8G	.
8G	.
8G	.
8G	.
8G	.
=463	=463
8FL	.
8G	.
8A-	.
8B-	.
8A-	.
8G	.
=464	=464
8FL	.
8G	.
8A-	.
8B-	.
8A-	.
8G	.
=465	=465
8FL	.
8G	.
8F	.
8G	.
8A-	.
8F	.
=466	=466
4r	.
4r	.
4b	p
=467	=467
4B	.
4r	.
4r	.
=468	=468
4r	.
4G	.
4G	.
=469	=469
8CL	.
8D	.
8E-	.
8F	.
8E-	.
8D	.
=470	=470
8CL	.
8D	.
8E-	.
8F	.
8E-	.
8D	.
=471	=471
8CL	.
8D	.
8C	.
8D	.
8E-	.
8C	.
=472	=472
4r	.
4r	.
4f#	p
=473	=473
4F#	.
4r	.
4r	.
=474	=474
4r	.
4d	.
4d	.
=475	=475
4d	.
4r	.
4r	.
=476	=476
2.r	.
=477	=477
2.r	.
=478	=478
2.r	.
=479	=479
2.r	.
=480	=480
2.r	.
=481	=481
2.r	.
=482	=482
4r	.
!LO:TX:t=cresc.	!
4B	<
(8cL	.
8d)	.
=483	=483
4C	.
4e-	.
4C	.
=484	=484
4C	.
4e	.
4C	.
=485	=485
4C	.
4f	.
4C	.
=486	=486
4C	[
4e	.
4C	.
=487	=487
4C	.
4f	.
4C	.
=488	=488
4C	.
4d	.
4C	.
=489	=489
!LO:TX:t=dim.	!
8e-L	.
8e-	.
2g	.
=490	=490
8a-L	.
8a-	.
2f	.
=491	=491
8gL	.
8g	.
2e-	.
=492	=492
8fL	.
8f	.
2d	.
=493	=493
8e-L	p
8E-	.
2G	.
=494	=494
!LO:TX:t=piu p	!
!LO:TX:t=piu p	!
8A-L	.
8A-	.
2F	.
=495	=495
8GL	.
8G	.
2E-	.
=496	=496
8FL	.
8F	.
2D	.
=497	=497
8E-L	.
8E-	.
2C	.
=498	=498
8DL	.
8D	.
2D	.
=499	=499
8E-L	.
8E-	.
2C	.
=500	=500
8DL	.
8D	.
2D	.
=501	=501
4D	pp
4r	.
4r	.
=502	=502
2.r	.
=503	=503
4G	.
4r	.
4r	.
=504	=504
4G	.
4r	.
4r	.
=505	=505
!LO:TX:t=sempre pp	!
!LO:TX:t=sempre pp	!
4G	.
4r	.
8GL	.
8G	.
=506	=506
4G	.
4r	.
8GL	.
8G	.
=507	=507
4G	.
4r	.
8GL	.
8G	.
=508	=508
4G	.
4r	.
8GL	.
8G	.
=509	=509
4G	f
8r	.
=510:|!	=510:|!
*k[]	*
*C:	*
4C 4G	f
!LO:TX:a:B:t=Piu presto quasi prestissimo	!
4r	.
4r	.
=511	=511
2.r	.
=512	=512
2.r	.
=513	=513
2.r	.
=514	=514
2.r	.
=515	=515
2.r	.
=516	=516
2.r	.
=517	=517
2.r	.
=518	=518
2.r	.
=519	=519
[2.c	f
=520	=520
2.c	.
=521	=521
2.d	.
=522	=522
2.e	.
=523	=523
2.d	.
=524	=524
2.B	.
=525	=525
2.d	.
=526	=526
2.e	.
=527	=527
2.d	.
=528	=528
4B	.
4r	.
4r	.
=529	=529
2.r	.
=530	=530
[2.d	ff
=531	=531
[2.d	.
=532	=532
2.d	.
=533	=533
2.c	.
=534	=534
[2.f	.
=535	=535
[2.f	.
=536	=536
2f	.
4e	.
=537	=537
[2.c	.
=538	=538
2.c	.
=539	=539
2.B	.
=540	=540
2.C 2.c	.
=541	=541
2.D 2.c	.
=542	=542
2.D 2.B	.
=543	=543
2.D 2.B	.
=544	=544
2.D 2.c	.
=545	=545
2.D 2.c	.
=546	=546
4D 4B	.
4r	.
4r	.
=547	=547
[2.G	.
=548	=548
2.G	.
=549	=549
2.A	.
=550	=550
2.B-	.
=551	=551
2.c#	.
=552	=552
2.e	.
=553	=553
4g	.
4f	.
4e	.
=554	=554
4d	.
4c#	.
4B-	.
=555	=555
4A	.
4G	.
4F	.
=556	=556
4E	.
4D	.
4C#	.
=557	=557
4E	.
4A	.
4c#	.
=558	=558
4e	.
4r	.
4r	.
=559	=559
[2.D	.
=560	=560
2.D	.
=561	=561
2.E	.
=562	=562
2.F	.
=563	=563
2.B	.
=564	=564
2.d	.
=565	=565
4f	.
4e	.
4d	.
=566	=566
4c	.
4B	.
4A	.
=567	=567
4G	.
4F	.
4E	.
=568	=568
4D	.
4C	.
4D	.
=569	=569
4F	.
4B	.
4d	.
=570	=570
4f	.
4r	.
4r	.
=571	=571
4cc	.
4dd	.
4ee	.
=572	=572
4dd	.
4cc	.
4b	.
=573	=573
4a	.
4g	.
4f	.
=574	=574
4e	.
4f	.
4g	.
=575	=575
4a	.
4b	.
4cc	.
=576	=576
4b	.
4a	.
4g	.
=577	=577
4f	.
4e	.
4d	.
=578	=578
4c	.
4d	.
4c	.
=579	=579
4B-	.
4A	.
4G	.
=580	=580
4F	.
4G	.
4F	.
=581	=581
4E	.
4D	.
4G	.
=582	=582
4C	.
4d	.
4c	.
=583	=583
4B-	.
4A	.
4G	.
=584	=584
4F	.
4G	.
4F	.
=585	=585
4E	.
4D	.
4G	.
=586	=586
4C	.
4r	.
4r	.
=587	=587
2.r	.
=588	=588
[2.D	.
=589	=589
[2.D	.
=590	=590
2.D	.
=591	=591
2.C	.
=592	=592
[2.F	.
=593	=593
[2.F	.
=594	=594
2F	.
4E	.
=595	=595
2.A	.
=596	=596
2B	sf
4G	.
=597	=597
2d	sf
4B	.
=598	=598
4r	.
4r	.
4r	.
=599	=599
2f	sf
4d	.
=600	=600
2b	.
4f	.
=601	=601
2dd	.
4b	.
=602	=602
4.dd	sf
=!|:	=!|:
*k[b-e-a-]	*
*c:	*
!LO:TX:a:B:t=Tempo primo	!
8r	.
4r	.
=603	=603
8cL	.
8d	.
8e-	.
8f	.
8e-	.
8d	.
=604	=604
8cL	.
8d	.
8e-	.
8f	.
8e-	.
8d	.
=605	=605
8cL	.
8d	.
8e-	.
8f	.
8f#	.
8f#	.
=606	=606
8gL	.
8a	.
8b	.
8b	p
8b	.
8b	.
=607	=607
8ccL	.
8b-	.
8a	.
8b	.
8g	.
8g	.
=608	=608
8gL	.
8d	.
8e-	.
8B	.
8c	.
8c	.
=609	=609
4B	.
4r	.
4r	.
=610	=610
4.r	.
=:|!	=:|!
8A-L	f
8A-	.
8A-	.
=611	=611
4.G	.
8A-	.
8A-	.
8A-	.
=612	=612
4.G	.
8A-	.
8A-	.
8A-	.
=613	=613
4.G	.
8A-	.
8A-	.
8A-	.
=614	=614
4.G	.
8D-	.
8D-	.
8D-	.
=615	=615
4.C	.
8D-	.
8D-	.
8D-	.
=616	=616
4.C	.
8D-	.
8D-	.
8D-	.
=617	=617
4.C	.
8D-	.
8D-	.
8D-	.
=618	=618
4.C	.
8E-	.
8E-	.
8E-	.
=619	=619
8FL 8A-	.
8F 8A-	.
8F 8A-	.
8F 8A-	.
8F 8A-	.
8F 8A-	.
=620	=620
8FL 8A-	.
8F 8A-	.
8F 8A-	.
8F 8A-	.
8F 8A-	.
8F 8A-	.
=621	=621
8B-L	ff
8G-	.
8B-	.
8e-	.
8g-	.
8b-	.
=622	=622
4E-	.
4r	.
8E-L	.
8E-	.
=623	=623
8E-L	.
8E-	.
8E-	.
8E-	.
8E-	.
8E-	.
=624	=624
8G-L	.
8G-	.
8G-	.
8G-	.
8G-	.
8G-	.
=625	=625
4.A-	.
8f	f
8f	.
8f	.
=626	=626
4.f	.
8F	.
8F	.
8F	.
=627	=627
8FL	.
8F 8A-	.
8F 8A-	.
8F 8A-	.
8F 8A-	.
8F 8A-	.
=628	=628
8FL 8A-	.
8F 8A-	.
8F 8A-	.
8F 8A-	.
8F 8A-	.
8F 8A-	.
=629	=629
8FL 8G	.
8G	.
8B-	.
8d-	.
8g	.
8b-	.
=630	=630
4B-	.
4r	.
8GL	.
8G	.
=631	=631
8GL	.
8G	.
8G	.
8G	.
8G	.
8G	.
=632	=632
8GL	.
8G	.
8G	.
8G	.
8G	.
8G	.
=633	=633
8FL	.
8G	.
8A-	.
8B-	.
8A-	.
8G	.
=634	=634
8FL	.
8G	.
8A-	.
8B-	.
8A-	.
8G	.
=635	=635
8FL	.
8G	.
8F	.
8G	.
8A-	.
8F	.
=636	=636
4r	.
4r	.
4b	p
=637	=637
4B	.
4r	.
4r	.
=638	=638
4r	.
4G	.
4G	.
=639	=639
8CL	.
8D	.
8E-	.
8F	.
8E-	.
8D	.
=640	=640
8CL	.
8D	.
8E-	.
8F	.
8E-	.
8D	.
=641	=641
8CL	.
8D	.
8C	.
8D	.
8E-	.
8C	.
=642	=642
4r	.
4r	.
4f#	p
=643	=643
4F#	.
4r	.
4r	.
=644	=644
4r	.
4d	.
4d	.
=645	=645
4d	.
4r	.
4r	.
=646	=646
2.r	.
=647	=647
2.r	.
=648	=648
2.r	.
=649	=649
2.r	.
=650	=650
2.r	.
=651	=651
2.r	.
=652	=652
4r	.
!LO:TX:t=cresc.	!
4B	<
(8cL	.
8d)	.
=653	=653
4C	.
4e-	.
4C	.
=654	=654
4C	.
4e	.
4C	.
=655	=655
4C	.
4f	.
4C	.
=656	=656
4C	[
4e	.
4C	.
=657	=657
4C	.
4f	.
4C	.
=658	=658
4C	.
4d	.
4C	.
=659	=659
!LO:TX:t=dim.	!
8e-L	.
8e-	.
2g	.
=660	=660
8a-L	.
8a-	.
2f	.
=661	=661
8gL	.
8g	.
2e-	.
=662	=662
8fL	.
8f	.
2d	.
=663	=663
8e-L	p
8E-	.
2G	.
=664	=664
!LO:TX:t=piu p	!
!LO:TX:t=piu p	!
8A-L	.
8A-	.
2F	.
=665	=665
8GL	.
8G	.
2E-	.
=666	=666
8FL	.
8F	.
2D	.
=667	=667
8E-L	.
8E-	.
2C	.
=668	=668
8DL	.
8D	.
2D	.
=669	=669
8E-L	.
8E-	.
2C	.
=670	=670
8DL	.
8D	.
2D	.
=671	=671
4D	pp
4r	.
4r	.
=672	=672
2.r	.
=673	=673
4G	.
4r	.
4r	.
=674	=674
4G	.
4r	.
4r	.
=675	=675
!LO:TX:t=sempre pp	!
!LO:TX:t=sempre pp	!
4G	.
4r	.
8GL	.
8G	.
=676	=676
4G	.
4r	.
8GL	.
8G	.
=677	=677
4G	.
4r	.
8GL	.
8G	.
=678	=678
4G	.
4r	.
8GL	.
8G	.
=679||	=679||
*k[]	*
*C:	*
4C 4G	f
4r	.
4r	.
=680	=680
2.r	.
=681	=681
2.r	.
=682	=682
2.r	.
=683	=683
2.r	.
=684	=684
2.r	.
=685	=685
2.r	.
=686	=686
2.r	.
=687	=687
2.r	.
=688	=688
[2.c	f
=689	=689
2.c	.
=690	=690
2.d	.
=691	=691
2.e	.
=692	=692
2.d	.
=693	=693
2.B	.
=694	=694
2.d	.
=695	=695
2.e	.
=696	=696
2.d	.
=697	=697
4B	.
4r	.
4r	.
=698	=698
2.r	.
=699	=699
[2.d	ff
=700	=700
[2.d	.
=701	=701
2.d	.
=702	=702
2.c	.
=703	=703
[2.f	.
=704	=704
[2.f	.
=705	=705
2f	.
4e	.
=706	=706
[2.c	.
=707	=707
2.c	.
=708	=708
2.B	.
=709	=709
2.C 2.c	.
=710	=710
2.D 2.c	.
=711	=711
2.D 2.B	.
=712	=712
2.D 2.B	.
=713	=713
2.D 2.c	.
=714	=714
2.D 2.c	.
=715	=715
4D 4B	.
4r	.
4r	.
=716	=716
[2.G	.
=717	=717
2.G	.
=718	=718
2.A	.
=719	=719
2.B-	.
=720	=720
2.c#	.
=721	=721
2.e	.
=722	=722
4g	.
4f	.
4e	.
=723	=723
4d	.
4c#	.
4B-	.
=724	=724
4A	.
4G	.
4F	.
=725	=725
4E	.
4D	.
4C#	.
=726	=726
4E	.
4A	.
4c#	.
=727	=727
4e	.
4r	.
4r	.
=728	=728
[2.D	.
=729	=729
2.D	.
=730	=730
2.E	.
=731	=731
2.F	.
=732	=732
2.B	.
=733	=733
2.d	.
=734	=734
4f	.
4e	.
4d	.
=735	=735
4c	.
4B	.
4A	.
=736	=736
4G	.
4F	.
4E	.
=737	=737
4D	.
4C	.
4D	.
=738	=738
4F	.
4B	.
4d	.
=739	=739
4f	.
4r	.
4r	.
=740	=740
4cc	.
4dd	.
4ee	.
=741	=741
4dd	.
4cc	.
4b	.
=742	=742
4a	.
4g	.
4f	.
=743	=743
4e	.
4f	.
4g	.
=744	=744
4a	.
4b	.
4cc	.
=745	=745
4b	.
4a	.
4g	.
=746	=746
4f	.
4e	.
4d	.
=747	=747
4c	.
4d	.
4c	.
=748	=748
4B-	.
4A	.
4G	.
=749	=749
4F	.
4G	.
4F	.
=750	=750
4E	.
4D	.
4G	.
=751	=751
4C	.
4d	.
4c	.
=752	=752
4B-	.
4A	.
4G	.
=753	=753
4F	.
4G	.
4F	.
=754	=754
4E	.
4D	.
4G	.
=755	=755
4C	.
4r	.
4r	.
=756	=756
2.r	.
=757	=757
[2.D	.
=758	=758
[2.D	.
=759	=759
2.D	.
=760	=760
2.C	.
=761	=761
[2.F	.
=762	=762
[2.F	.
=763	=763
2F	.
4E	.
=764	=764
2.A	.
=765	=765
2B	sf
4G	.
=766	=766
2d	sf
4B	.
=767	=767
4r	.
4r	.
4r	.
=768	=768
2f	sf
4d	.
=769	=769
2b	.
4f	.
=770	=770
[4.dd	.
=	=
4.dd	sf
=||	=||
*k[b-e-a-]	*
*c:	*
!LO:TX:a:B:t=Tempo primo	!
4r	.
8r	.
=771	=771
8cL	.
8d	.
8e-	.
8f	.
8e-	.
8d	.
=772	=772
8cL	.
8d	.
8e-	.
8f	.
8e-	.
8d	.
=773	=773
8cL	.
8d	.
8e-	.
8f	.
8f#	.
8f#	.
=774	=774
8gL	.
8a	.
8b	.
8b	p
8b	.
8b	.
=775	=775
8ccL	.
8b-	.
8a	.
8b	.
8g	.
8g	.
=776	=776
8gL	.
8d	.
8e-	.
8B	.
8c	.
8c	.
=777	=777
4B	.
4r	.
4r	.
=778	=778
2.r	.
=779	=779
8cL	.
8d	.
8e-	.
8f	.
8e-	.
8d	.
=780	=780
8cL	.
8d	.
8e-	.
8f	.
8e-	.
8d	.
=781	=781
8cL	.
8d	.
8e-	.
8f	.
8f#	.
8f#	.
=782	=782
8gL	.
8a	.
8b	.
8b	p
8b	.
8b	.
=783	=783
8ccL	.
8b-	.
8a	.
8b	.
8g	.
8g	.
=784	=784
8gL	.
8d	.
8e-	.
8B	.
8c	.
8c	.
=785	=785
4B	.
4r	.
4r	.
=786	=786
4r	.
8r	.
!LO:TX:t=sempre p	!
!LO:TX:t=sempre p	!
8A-	.
8A-	.
8A-	.
=787	=787
4.G	.
8A-	.
8A-	.
8A-	.
=788	=788
4.G	.
8A-	.
8A-	.
8A-	.
=789	=789
4.G	.
8A-	.
8A-	.
8A-	.
=790	=790
4.G	.
8D-	.
8D-	.
8D-	.
=791	=791
4.C	.
8D-	.
8D-	.
8D-	.
=792	=792
4.C	.
8D-	.
8D-	.
8D-	.
=793	=793
4.C	.
8D-	.
8D-	.
8D-	.
=794	=794
4.C	.
8E-	.
8E-	.
8E-	.
=795	=795
8FL 8A-	.
8F 8A-	.
8F 8A-	.
8F 8A-	.
8F 8A-	.
8F 8A-	.
=796	=796
8FL 8A-	.
8F 8A-	.
8F 8A-	.
8F 8A-	.
8F 8A-	.
8F 8A-	.
=797	=797
8B-L	.
8G-	.
8B-	.
8e-	.
8g-	.
8b-	.
=798	=798
4E-	.
4r	.
8E-L	.
8E-	.
=799	=799
8E-L	.
8E-	.
8E-	.
8E-	.
8E-	.
8E-	.
=800	=800
8G-L	.
8G-	.
8G-	.
8G-	.
8G-	.
8G-	.
=801	=801
4.A-	.
8f	.
8f	.
8f	.
=802	=802
4.f	.
8F	.
8F	.
8F	.
=803	=803
8FL	.
8F 8A-	.
8F 8A-	.
8F 8A-	.
8F 8A-	.
8F 8A-	.
=804	=804
8FL 8A-	.
8F 8A-	.
8F 8A-	.
8F 8A-	.
8F 8A-	.
8F 8A-	.
=805	=805
8FL 8G	.
8G	.
8B-	.
8d-	.
8g	.
8b-	.
=806	=806
4B-	.
4r	.
8GL	.
8G	.
=807	=807
8GL	.
8G	.
8G	.
8G	.
8G	.
8G	.
=808	=808
8GL	.
8G	.
8G	.
8G	.
8G	.
8G	.
=809	=809
8FL	.
8G	.
8A-	.
8B-	.
8A-	.
8G	.
=810	=810
8FL	.
8G	.
8A-	.
8B-	.
8A-	.
8G	.
=811	=811
8FL	.
8G	.
8F	.
8G	.
8A-	.
8F	.
=812	=812
4r	.
4r	.
4b	.
=813	=813
4B	.
4r	.
4r	.
=814	=814
4r	.
4G	.
4G	.
=815	=815
8CL	.
8D	.
8E-	.
8F	.
8E-	.
8D	.
=816	=816
8CL	.
8D	.
8E-	.
8F	.
8E-	.
8D	.
=817	=817
8CL	.
8D	.
8C	.
8D	.
8E-	.
8C	.
=818	=818
4r	.
4r	.
4f#	.
=819	=819
4F#	.
4r	.
4r	.
=820	=820
4r	.
4d	.
4d	.
=821	=821
4d	.
4r	.
4r	.
=822	=822
2.r	.
=823	=823
2.r	.
=824	=824
2.r	.
=825	=825
2.r	.
=826	=826
2.r	.
=827	=827
2.r	.
=828	=828
4r	.
4B	.
(8cL	.
8d)	.
=829	=829
4C	.
4e-	.
4C	.
=830	=830
4C	.
4e	.
4C	.
=831	=831
4C	.
4f	.
4C	.
=832	=832
4C	.
4e	.
4C	.
=833	=833
4C	.
4f	.
4C	.
=834	=834
4C	.
4d	.
4C	.
=835	=835
!LO:TX:t=sempre piu p	!
!LO:TX:t=sempre piu p	!
8e-L	.
8e-	.
2g	.
=836	=836
8a-L	.
8a-	.
2f	.
=837	=837
8gL	.
8g	.
2e-	.
=838	=838
8fL	.
8f	.
2d	.
=839	=839
8e-L	.
8E-	.
2G	.
=840	=840
8A-L	.
8A-	.
2F	.
=841	=841
8GL	.
8G	.
2E-	.
=842	=842
8FL	.
8F	.
2D	.
=843	=843
8E-L	.
8E-	.
2C	.
=844	=844
8DL	.
8D	.
2D	.
=845	=845
8E-L	.
8E-	.
2C	.
=846	=846
8DL	.
8D	.
2D	.
=847	=847
4D	ppp
4r	.
4r	.
=848	=848
2.r	.
=849	=849
4G	.
4r	.
4r	.
=850	=850
4G	.
4r	.
4r	.
=851	=851
4G	.
4r	.
8GL	.
8G	.
=852	=852
4G	.
4r	.
8GL	.
8G	.
=853	=853
4G	.
4r	.
8GL	.
8G	.
=854	=854
4G	.
4r	.
8GL	.
8G	.
=855	=855
(4C	.
[2A-)	.
=856	=856
[2.A-	.
=857	=857
!LO:TX:t=dim.	!
[2.A-	.
=858	=858
[2.A-	.
=859	=859
4A-	.
4r	.
4r	.
=860	=860
!LO:TX:t=sempre pp	!
2.r	.
=861	=861
!LO:TX:t=sempre pp	!
4A-	.
4r	.
4r	.
=862	=862
4A-	.
4r	.
4r	.
=863	=863
4A-	.
8r	.
8A-	.
8A-	.
8A-	.
=864	=864
4A-	.
8r	.
8A-	.
8A-	.
8A-	.
=865	=865
4A-	.
8r	.
8A-	.
8A-	.
8A-	.
=866	=866
4A-	.
8r	.
8A-	.
8A-	.
8A-	.
=867	=867
(4D-	.
[2B-)	.
=868	=868
[2.B-	.
=869	=869
!LO:TX:t=dim.	!
[2.B-	.
=870	=870
2.B-	.
=871	=871
4B-	pp
4r	.
4r	.
=872	=872
2.r	.
=873	=873
!LO:TX:t=poco cresc.	!
(2.c-	.
=874	=874
2.cc-)	.
=875	=875
4b-	pp
4r	.
4r	.
=876	=876
2.r	.
=877	=877
!LO:TX:t=poco cresc.	!
(2.c-	.
=878	=878
2.cc-)	.
=879	=879
4b-	pp
4r	.
4r	.
=880	=880
2.r	.
=881	=881
2.r	.
=882	=882
2.r	.
=883	=883
2.r	.
=884	=884
2.r	.
=885	=885
2.r	.
=886	=886
2.r	.
=887	=887
2.r	.
=888	=888
2.r	.
=889	=889
2.r	.
=890	=890
2.r	.
=891	=891
!LO:TX:t=sempre pp	!
8a-L	.
8a-	.
8b-	.
8b-	.
8a-	.
8a-	.
=892	=892
8a-L	.
8a-	.
8b-	.
8b-	.
8a-	.
8a-	.
=893	=893
4a-	.
4r	.
4r	.
=894	=894
2.r	.
=895	=895
8A-L	.
8A-	.
8B-	.
8B-	.
8A-	.
8A-	.
=896	=896
8A-L	.
8A-	.
8B-	.
8B-	.
8A-	.
8A-	.
=897	=897
8FL	.
8F	.
8G	.
8G	.
8F	.
8F	.
=898	=898
8FL	.
8F	.
8G	.
8G	.
8F	.
8F	.
=899	=899
2.F	.
=900!|:	=900!|:
*k[b-e-a-]	*
*E-:	*
*M2/4	*
!LO:TX:a:B:t=Allegretto con Variazioni	!
[4G	p
=901	=901
8GL	.
8r	.
[4A-	.
=902	=902
8A-L	.
8r	.
[4c	.
=903	=903
8cL	.
8r	.
[4F	.
=904	=904
8FL	.
8r	.
!LO:TX:t=cresc.	!
!LO:TX:t=cresc.	!
[4F	<
=905	=905
8FL	.
8r	.
[4B-	.
=906	=906
8B-L	.
8r	[
(8.GL	.
16g)	.
=907	=907
8gL	.
8G	.
8cL	.
8cc	.
=908	=908
8bL	.
8r	.
=:|!|:	=:|!|:
(4g	pp
=909	=909
4c	.
4f	.
=910	=910
4B-	.
4e-	.
=911	=911
4G	.
4d	.
=912	=912
4a)	.
!LO:TX:t=cresc.	!
!LO:TX:t=cresc.	!
(8.a-L	<
16g	.
=913	=913
8fL)	.
8r	.
8.B-L	.
16B-	.
=914	=914
8B-L	.
8r	.
(8.fL	.
16g	.
=915	=915
8a-L)	.
8r	.
(8.fL	.
16e-	.
=916	=916
8dL)	[
8r	.
(8.e-L	.
16f	.
=917	=917
8B-L)	.
8r	.
(8.A-L	sf
16B-	.
=918	=918
8E-L)	.
8r	.
(8.FL	sf
16G)	.
=919	=919
8A-L	.
8G	.
8F	.
8A-	.
=920	=920
8GL	.
8r	.
=:|!|:	=:|!|:
4r	.
=921	=921
!LO:TX:t=sempre f e staccato	!
8GL	.
8B-	.
8e-	.
8g	.
=922	=922
!LO:TX:t=sempre f e staccato	!
8cL	.
8r	.
4r	.
=923	=923
8FL	.
8G	.
8A-	.
8A	.
=924	=924
8FL	.
8r	.
4r	.
=925	=925
8dL	.
8e-	.
8f	.
8f#	.
=926	=926
8gL	.
8a-	.
8b-	.
8f	.
=927	=927
8e-L	.
8c	.
8c	.
8c	.
=928	=928
8dL	.
8r	.
=:|!|:	=:|!|:
4r	.
=929	=929
8cL	.
8e	.
4r	.
=930	=930
8B-L	.
8d	.
4r	.
=931	=931
8r	.
8G	.
8d	.
8D	sf
=932	=932
8DL	.
8r	.
4r	.
=933	=933
8dL	.
8c	.
8B-	.
8c	.
=934	=934
8dL	.
8r	.
8fL	.
8e-	.
=935	=935
8dL	.
8e-	.
8f	.
8g	.
=936	=936
8a-L	.
8r	.
8b-L	.
8d	.
=937	=937
8e-L	.
8r	.
8b-L	.
8e-	.
=938	=938
8e-L	.
8e	.
8f	.
8g	.
=939	=939
8a-L	.
8B-	.
8B-	.
8b-	.
=940	=940
8b-L	.
8r	.
=:|!|:	=:|!|:
!LO:TX:t=dolce	!
(12B-L	.
12c	.
12A-	.
=941	=941
12GL	.
12B-	.
12A-	.
12GL	.
12e-	.
12d)	.
=942	=942
(12dL	.
12B	.
12c	.
12cL	.
12d	.
12B-)	.
=943	=943
(12B-L	.
12G	.
12A-	.
12A-L	.
12B-	.
12G)	.
=944	=944
(12GL	.
12E	.
12F	.
12A-L	.
12B-)	.
12G	.
=945	=945
(12GL	.
12E	.
12F	.
12B-L	.
12c	.
12A-)	.
=946	=946
(12A-L	.
12F#	.
12G)	.
(12GL	.
12g	.
12f)	.
=947	=947
(12fL	.
12e-	.
12d	.
12dL	.
12e-	.
12c)	.
=948	=948
8gL	.
8r	.
=:|!|:	=:|!|:
(12bL	.
12a	.
12b)	.
=949	=949
4cc	.
(12aL	.
12g	.
12a	.
=950	=950
12b-L	.
12f	.
12a-	.
12gL	.
12f	.
12e-	.
=951	=951
12dL	.
12c#	.
12g	.
12f#L	.
12a	.
12f#	.
=952	=952
12dL	.
12A	.
12F#)	.
(12DL	.
12d	.
12c)	.
=953	=953
(12cL	.
12A	.
12B-	.
12dL	.
12e-	.
12e	.
=954	=954
12gL	.
12e	.
12f)	.
(12fL	.
12g	.
12e-)	.
=955	=955
(12e-L	.
12c	.
12d	.
12fL	.
12f#	.
12g	.
=956	=956
12b-L	.
12g	.
12a-)	.
(12b-L	.
12cc	.
12a-	.
=957	=957
12gL	.
12b-	.
12a-	.
12gL	.
12ee-	.
12dd)	.
=958	=958
(12ddL	.
12b	.
12cc	.
12ccL	.
12dd	.
12b-)	.
=959	=959
(12a-L	.
12b-	.
12g	.
12fL	.
12cc	.
12b-)	.
=960	=960
8e-L	.
8r	.
=:|!|:	=:|!|:
8r	f
8b-	f
=961	=961
8r	.
8ee-	.
8r	.
8e-	.
=962	=962
8r	.
8cc	.
8r	.
8c	.
=963	=963
8r	.
8a-	.
8r	.
8A-	.
=964	=964
8r	.
8f	.
8r	.
8f	.
=965	=965
8r	.
8b-	.
8r	.
8B-	.
=966	=966
8r	.
8ee-	.
8r	.
8e-	.
=967	=967
8r	.
8cc	.
8r	.
8c	.
=968	=968
8r	.
8g	.
=:|!|:	=:|!|:
4r	.
=969	=969
8r	.
8c	.
8r	.
8F 8A	.
=970	=970
8r	.
8B-	.
8r	.
8E-	.
=971	=971
8r	.
8cc#	.
16r	.
16dd	.
16d	.
16dd	.
=972	=972
8dL	.
8r	.
4r	.
=973	=973
4r	.
16B-LL	p
16A	.
16B-	.
16c	.
=974	=974
16cLL	.
16d	.
16e-	.
16d	.
4r	.
=975	=975
4r	.
16B-LL	.
16c	.
16d	.
16e-	.
=976	=976
16eLL	.
16f	.
16g	.
16f	.
8r	f
8b-	f
=977	=977
8r	.
8ee-	.
8r	.
8e-	.
=978	=978
8r	.
8cc	.
8r	.
8c	.
=979	=979
8r	.
8a-	.
8r	.
8f 8b-	.
=980	=980
8r	.
8g 8b-	.
=:|!|:	=:|!|:
4r	.
=981	=981
2r	.
=982	=982
!LO:TX:t=sempre p e dolce	!
!LO:TX:t=sempre p e dolce	!
(8A-L	.
8B-	.
8c	.
8A-)	.
=983	=983
2r	.
=984	=984
(8DL	.
8E-	.
8F	.
8D)	.
=985	=985
(8DL	.
8E-	.
8F	.
8D	.
=986	=986
8GL	.
8A-	.
8B-	.
8G	.
=987	=987
8AL	.
8B-	.
8c	.
8A)	.
=988	=988
4B	.
=:|!|:	=:|!|:
[4g	.
=989	=989
(4g	.
4f)	.
=990	=990
(8CL	.
8B	.
8c	.
8C)	.
=991	=991
2r	.
=992	=992
(8BL	.
8g	.
8a-	.
8B)	.
=993	=993
2r	.
=994	=994
(8B-L	.
8g	.
8a-	.
8B-)	.
=995	=995
!LO:TX:t=cresc.	!
(4A-	<
4G	.
=996	=996
4F	>
[4B-)	]
=997	=997
!LO:TX:t=sotto voce	!
(8B-L	.
8A-	.
8G	.
8B-	.
=998	=998
8A-L	.
8B-	.
8c	.
8A-)	.
=999	=999
(8A-L	.
8G	.
8F	.
8D)	.
=1000	=1000
4E-	.
=:|!|:	=:|!|:
!LO:TX:t=sempre f	!
8r	.
8E-	.
=1001	=1001
8E-L	.
8E-	.
8r	.
8E-	.
=1002	=1002
8E-L	.
8E-	.
8r	.
8c	.
=1003	=1003
8A-L	.
8c	.
8r	.
8c	.
=1004	=1004
8B-L	.
8B-	.
8r	.
8B-	.
=1005	=1005
8B-L	.
8B-	.
8r	.
8B-	.
=1006	=1006
8B-	.
8B-	.
8r	.
8G	.
=1007	=1007
8cL	.
8C	.
8r	.
8c	.
=1008	=1008
8GL	.
8r	.
=:|!|:	=:|!|:
8r	.
8d-	.
=1009	=1009
8cL	.
8c	.
8r	.
8f	.
=1010	=1010
8fL	.
8f	.
8r	.
8B-	.
=1011	=1011
8c#L	.
8c#	.
8r	.
8d	.
=1012	=1012
8dL	.
8D	.
8r	.
8F 8A-	.
=1013	=1013
8FL 8A-	.
8F 8A-	.
8r	.
8F 8A-	.
=1014	=1014
8FL 8A-	.
8F 8A-	.
8r	.
8F 8A-	.
=1015	=1015
8FL 8A-	.
8F 8A-	.
8r	.
8F 8A-	.
=1016	=1016
8FL 8A-	.
8F 8A-	.
8r	.
8F 8A-	.
=1017	=1017
8E-L 8G	.
8E- 8G	.
8r	.
8g	.
=1018	=1018
8e-L	.
8c	.
8r	.
8f	.
=1019	=1019
8fL	.
8f	.
8r	.
8f	.
=1020	=1020
8e-L	.
8r	.
=:|!|:	=:|!|:
!LO:TX:a:B:t=un poco più vivace	!
4r	.
=1021	=1021
2r	.
=1022	=1022
4r	.
(8e-L	pp
8d	.
=1023	=1023
8e-L	.
8d	.
8e-	.
8G	.
=1024	=1024
8GL	.
8A-)	.
(8A-	.
8B-	.
=1025	=1025
8cL	.
8d	.
8F	.
8G	.
=1026	=1026
8GL	.
8A-	.
8A-	.
8G)	.
=1027	=1027
(8A-L	.
8G	.
8G	.
8F	.
=1028	=1028
8GL	.
8F	.
8E-	.
8G)	.
=1029	=1029
(8A-L	.
8f	.
8g	.
8d	.
=1030	=1030
4e-)	.
=:|!|:	=:|!|:
!LO:TX:t=sempre pp	!
(4B-	.
=1031	=1031
2A-)	.
=1032	=1032
(8G-L	.
8F	.
8F	.
8G-)	.
=1033	=1033
(8E-L	.
8G-)	.
[4F	.
=1034	=1034
4F	.
(8FL	.
8A-)	.
=1035	=1035
(8A-L	.
8G-	.
8F	.
8E-)	.
=1036	=1036
(8E-L	.
8D-)	.
(8A-	.
8G-)	.
=1037	=1037
(8G-L	.
8F	.
8d-	.
8e-	.
=1038	=1038
8fL	.
8A-	.
8G	.
8A-	.
=1039	=1039
8GL	.
8A-	.
8G	.
8g)	.
=1040	=1040
(8gL	.
8a-	.
8d	.
8e-	.
=1041	=1041
8FL	.
8G	.
8A-	.
8B-	.
=1042	=1042
4B-)	.
=1043:|!	=1043:|!
4B-	.
(8B-L	<
8c	.
=1044	=1044
8B-L	.
8c	.
8B-	.
8e-	.
=1045	=1045
8dL	.
8c	.
8d	.
8c	.
=1046	=1046
8B-L	.
8A-	.
8B-	.
8A-	.
=1047	=1047
8GL	>
8F)	.
12B-L	<
12B-	.
12B-	.
=1048	=1048
12B-L	.
12B-	.
12B-	.
12B-L	.
12B-	.
12B-	.
=1049	=1049
12B-L	.
12B-	.
12B-	.
12B-L	.
12B-	.
12B-	.
=1050	=1050
12B-L	.
12B-	.
12B-	.
12B-L	.
12B-	.
12B-	.
=1051	=1051
12B-L	>
12B-	.
12B-	.
12e-L	]
12e-	.
12e-	.
=1052	=1052
!LO:TX:t=cresc.	!
!LO:TX:t=cresc.	!
12e-L	<
12e-	.
12e-	.
12e-L	.
12e-	.
12e-	.
=1053	=1053
12fL	.
12f	.
12f	.
12fL	.
12f	.
12f	.
=1054	=1054
12dL	.
12d	.
12d	.
12dL	.
12d	.
12d	.
=1055	=1055
12e-L	.
12e-	.
12f	[
12GL	f
12G	.
12G	.
=1056	=1056
12GL	.
12c	.
12c	.
12cL	.
12c	.
12c	.
=1057	=1057
12B-L	>
12B-	.
12B-	]
12cL	p
12c	.
12c	.
=1058	=1058
12B-L	.
12B-	.
12B-	.
!LO:TX:t=cresc.	!
12B-L	<
12B-	.
12B-	.
=1059	=1059
12B-L	.
12E-	.
12F	[
12GL	f
12G	.
12G	.
=1060	=1060
12GL	.
12c	.
12c	.
12cL	.
12c	.
12c	.
=1061	=1061
12B-L	.
12B-	.
12B-	.
12cL	.
12c	.
12A-	.
=1062	=1062
(12GL	.
12B-	.
12G)	.
12FL 12A-	.
12F 12A-	.
12F 12A-	.
=1063	=1063
12GL	.
12G	.
12G	.
12GL	.
12G	.
12G	.
=1064	=1064
12EL 12G	<
12E 12G	.
12E 12G	[
12EL 12G	.
12E 12G	.
12E 12G	.
=1065	=1065
12GL	.
12G	.
12G	.
12GL	.
12G	.
12G	.
=1066	=1066
12FL 12A-	.
12F 12A-	.
12F 12A-	.
12FL 12A-	.
12F 12A-	.
12F 12A-	.
=1067	=1067
12GL	.
12G	.
12G	.
12GL	.
12G	.
12G	.
=1068	=1068
12EL 12G	<
12E 12G	.
12E 12G	[
12EL 12G	>
12E 12G	.
12E 12G	]
=1069	=1069
12GL	.
12G	.
12G	.
12GL	.
12G	.
12G	.
=1070	=1070
4F 4A-	.
8r	.
(16B-	.
16d	.
=1071	=1071
8e-L)	.
8r	.
8r	.
(16e-	.
16g	.
=1072	=1072
8a-L)	.
8r	.
8r	.
(16f	.
16g	.
=1073	=1073
8a-L)	.
8r	.
8r	.
(16d	.
16e-	.
=1074	=1074
8fL)	.
8r	.
8r	.
(16B-	.
16c	.
=1075	=1075
8dL)	.
8r	.
8r	.
(16e-	.
16f)	.
=1076	=1076
8gL	.
8r	.
8r	.
(16f	.
16g	.
=1077	=1077
8a-L)	.
(16c	.
16B-	.
8A-L)	.
8f	.
=1078	=1078
!LO:TX:t=cresc. poco a poco	!
12GL	.
12G	.
12B-	.
!LO:TX:a:B:t=accel.	!
12GL	.
12G	.
12B-	.
=1079	=1079
12GL	.
12G	.
12B-	.
12GL	.
12G	.
12B-	.
=1080	=1080
12cL	.
12c	.
12e-	.
12cL	.
12c	.
12e-	.
=1081	=1081
12A-L	.
12A-	.
12c	.
12A-L	.
12A-	.
12c	.
=1082	=1082
12FL	.
12F	.
12B-	.
12FL	.
12F	.
12B-	.
=1083	=1083
12fL	.
12f	.
12a-	.
12fL	.
12f	.
12a-	.
=1084	=1084
12B-L	.
12B-	.
12g	.
12B-L	.
12B-	.
12g	.
=1085	=1085
12B-L	.
12B-	.
12f	.
12B-L	.
12B-	.
12b-	.
=1086	=1086
!LO:TX:a:B:t=Allegro	!
8e-L	f
8r	.
16B-LL	.
16c	.
16B-	.
16A-	.
=1087	=1087
16GLL	.
16B-	.
16c	.
16d	.
16e-LL	sf
16f	.
16e-	.
16d	.
=1088	=1088
16dLL	.
16c	.
16B	.
16c	.
16cLL	sf
16d	.
16c	.
16B-	.
=1089	=1089
16B-LL	.
16A-	.
16G	.
16A-	.
16A-LL	sf
16B-	.
16A-	.
16G	.
=1090	=1090
16GLL	.
16F	.
16E	.
16F	.
16A-LL	sf
16B-	.
16A-	.
16G	.
=1091	=1091
16GLL	.
16F	.
16E	.
16F	.
16B-LL	sf
16c	.
16B-	.
16A-	.
=1092	=1092
16GLL	ff
16A-	.
16B-	.
16B	.
16CLL	.
16D	.
16E-	.
16E	.
=1093	=1093
16FLL	.
16G	.
16A-	.
16A	.
8B-L	.
8B-	.
=1094	=1094
8E-L	.
8r	.
4r	.
=1095	=1095
8FL	p
8r	.
4r	.
=1096	=1096
8E-L 8G	.
8r	.
==	==
*-	*-
